X: 110
T:Charlie Harris No.1
T:O'Connell's Reel
M:C
L:1/8
B:M.Brcher Irish Dance Tunes Vol.2;  Grier Manuscript;
N:
D:McNamara Family "Leitrims Hidden Treasure
K:D
[|dB | AFDF EFDF | AFAB e2 dB |  AFDF EFDF | AAAB d2 dB |
AFDF EFDF | AFAB e2 dB | AFDF EFDF | AFAB dABc |]
[| defd efed | AFAB (3eee dB | defd efed | AAAB d2 dA|
(3ddd fd efed | AFAB e2 ef | df ~f2 af ~f2 | afef d2 |]
